src/22/actions/kstars_constellationart.svg

<svg xmlns="http://www.w3.org/2000/svg" viewBox="0 0 22 22">
  <defs id="defs3051">
    <style type="text/css" id="current-color-scheme">
      .ColorScheme-Text {
        color:#5d656b;
      }
      </style>
  </defs>
 <path 
     style="fill:currentColor;fill-opacity:1;stroke:none" 
     d="M 6.1679688,2.015625 C 5.9110088,1.9170648 5.6328519,2.3104271 5.5449219,2.8964844 5.4656789,3.4246825 5.5472328,6.2139553 5.6523438,6.5742188 5.7043718,6.7525398 5.6178466,6.8366112 5.1660156,7.046875 4.5019686,7.355895 3.5475828,8.2595435 3.2304688,8.8808594 3.0925597,9.1510596 3,9.538221 3,9.8398438 c 0,0.4401542 0.053471,0.5594932 0.4101562,0.9160152 0.432368,0.432172 0.8873398,0.60784 1.8710938,0.720703 0.328613,0.0377 0.6631375,0.119121 0.7421875,0.181641 0.281505,0.222621 0.561689,0.944271 0.671875,1.724609 0.069579,0.492764 0.2617124,1.109964 0.5058594,1.63086 0.391134,0.834505 0.3921425,0.839263 0.3203125,1.898437 -0.039645,0.584556 -0.1266694,1.419543 -0.1933594,1.853516 -0.109063,0.709725 -0.1031164,0.810199 0.072266,1.003906 0.298794,0.330021 1.0788668,0.299669 1.3085938,-0.05078 0.171711,-0.261945 0.394771,-1.027813 0.53125,-1.824219 L 9.3105469,17.488281 9.8222656,17.75 c 0.2898814,0.148899 0.5903744,0.408243 0.6953124,0.597656 l 0.185547,0.333985 -0.296875,0 c -0.440458,0 -0.7792969,0.283183 -0.7792969,0.65039 C 9.6269531,19.98303 10,20 10,20 l 6,0 c 1,0 1.058718,-0.211372 1.146484,-1.146484 0.02519,-0.268424 0.102631,-0.342785 0.5,-0.47461 0.955811,-0.317088 1.579116,-1.305432 1.277344,-2.027344 -0.161353,-0.385998 -0.667106,-0.657035 -1.080078,-0.578124 -0.244654,0.04675 -0.264105,0.0081 -0.369141,-0.720704 C 17.250865,13.500303 16.626697,12.435565 15.503906,11.6875 14.67212,11.133317 13.73575,10.877969 12.123047,10.763672 10.59553,10.655414 10.087723,10.4801 9.5898438,9.8886719 9.4353357,9.7051323 9.2807638,9.3725862 9.2460938,9.1503906 9.1013707,8.22292 8.9451966,7.8710575 8.4785156,7.421875 L 8.0058594,6.9648438 8.2167969,6.3515625 c 0.628371,-1.8255676 0.7290332,-4.2832031 0.1757812,-4.2832031 -0.312813,0 -0.8024425,0.7559969 -1.1484375,1.7734375 L 7.0605469,4.3789062 6.9199219,3.7402344 C 6.7323379,2.8878447 6.3888418,2.100344 6.1679688,2.015625 Z M 5.5,8 C 5.7761424,8 6,8.2238576 6,8.5 6,8.7761424 5.7761424,9 5.5,9 5.2238576,9 5,8.7761424 5,8.5 5,8.2238576 5.2238576,8 5.5,8 Z"
	 class="ColorScheme-Text"
     />
</svg>

<svg xmlns="http://www.w3.org/2000/svg" viewBox="0 0 22 22"><path d="M6.168 2.016c-.257-.099-.535.294-.623.88-.08.529.002 3.318.107 3.678.052.179-.034.263-.486.473-.664.309-1.618 1.213-1.936 1.834A2.32 2.32 0 0 0 3 9.84c0 .44.053.56.41.916.433.432.887.608 1.871.72.329.038.663.12.742.182.282.223.562.944.672 1.725.07.493.262 1.11.506 1.63.391.835.392.84.32 1.9-.04.584-.126 1.419-.193 1.853-.109.71-.103.81.072 1.004.3.33 1.08.3 1.309-.051.172-.262.395-1.028.531-1.824l.07-.407.512.262c.29.149.59.408.696.598l.185.334h-.297c-.44 0-.779.283-.779.65 0 .651.373.668.373.668h6c1 0 1.059-.211 1.146-1.146.026-.269.103-.343.5-.475.956-.317 1.58-1.306 1.278-2.027-.162-.386-.667-.657-1.08-.579-.245.047-.264.009-.37-.72-.223-1.553-.847-2.617-1.97-3.366-.832-.554-1.768-.809-3.381-.923-1.527-.109-2.035-.284-2.533-.875a1.792 1.792 0 0 1-.344-.739c-.145-.927-.3-1.279-.767-1.728l-.473-.457.21-.613c.63-1.826.73-4.284.177-4.284-.313 0-.803.756-1.149 1.774l-.183.537-.141-.639c-.188-.852-.531-1.64-.752-1.724zM5.5 8a.5.5 0 1 1 0 1 .5.5 0 0 1 0-1z" fill="currentColor" color="#5d656b"/></svg>
